icons/mobile/24/svg/soccer-ball-24.svg

<svg width="24" height="24" viewBox="0 0 24 24" fill="none" xmlns="http://www.w3.org/2000/svg">
<path d="M11.4119 9.92676C11.7628 9.6719 12.2377 9.672 12.5876 9.92676L14.0408 10.9834C14.3906 11.2383 14.5378 11.6887 14.4041 12.1006L13.8494 13.8086C13.7154 14.2205 13.3311 14.4999 12.8982 14.5H11.1023C10.6693 14.5 10.2851 14.2206 10.1511 13.8086L9.59546 12.1006C9.4618 11.6888 9.6091 11.2383 9.95874 10.9834L11.4119 9.92676Z" fill="black"/>
<path fill-rule="evenodd" clip-rule="evenodd" d="M11.9998 2.125C17.4536 2.125 21.8748 6.54619 21.8748 12C21.8748 17.4538 17.4536 21.875 11.9998 21.875C6.54606 21.8749 2.12476 17.4537 2.12476 12C2.12476 6.54627 6.54606 2.12513 11.9998 2.125ZM12.5876 6.44824C12.2367 6.70302 11.7618 6.7031 11.4119 6.44824L8.55054 4.36816C7.56831 4.81281 6.68799 5.44128 5.9519 6.20996L7.23901 9.5625C7.395 9.96748 7.27226 10.4262 6.9353 10.6992L3.72534 13.2969C3.86906 14.2213 4.16467 15.0952 4.58472 15.8936L7.7146 15.7305C8.1476 15.7075 8.54593 15.9661 8.70093 16.3701L10.1589 20.1689C10.7515 20.3019 11.3671 20.375 11.9998 20.375C12.671 20.375 13.3234 20.2937 13.949 20.1445L14.8855 16.6494C14.9985 16.2306 15.3658 15.9324 15.7986 15.9092L19.5056 15.7148C19.9029 14.9137 20.1745 14.0404 20.2976 13.1191L17.1091 11.0488C16.7461 10.8138 16.5763 10.3701 16.6882 9.95215L17.7605 5.94629L17.782 5.94434C17.1027 5.29555 16.315 4.76048 15.448 4.36816L12.5876 6.44824Z" fill="black"/>
</svg>

<!-- This Source Code Form is subject to the terms of the Mozilla Public
   - License, v. 2.0. If a copy of the MPL was not distributed with this
   - file, You can obtain one at http://mozilla.org/MPL/2.0/. -->
<svg xmlns="http://www.w3.org/2000/svg" width="24" height="24" fill="none" viewBox="0 0 24 24">
    <path fill="#000" d="M11.412 9.927a1 1 0 0 1 1.176 0l1.453 1.056a1 1 0 0 1 .363 1.118l-.555 1.708a1 1 0 0 1-.95.691h-1.797a1 1 0 0 1-.95-.691L9.594 12.1a1 1 0 0 1 .364-1.118z" />
    <path fill="#000" fill-rule="evenodd" d="M12 2.125c5.454 0 9.875 4.421 9.875 9.875S17.454 21.875 12 21.875 2.125 17.454 2.125 12 6.546 2.125 12 2.125m.588 4.323a1 1 0 0 1-1.176 0L8.55 4.368a8.4 8.4 0 0 0-2.6 1.842l1.29 3.353a1 1 0 0 1-.304 1.136l-3.21 2.598c.144.924.44 1.798.86 2.597l3.13-.164a1 1 0 0 1 .986.64l1.458 3.799a8.4 8.4 0 0 0 1.84.206c.672 0 1.324-.081 1.95-.23l.937-3.496a1 1 0 0 1 .913-.74l3.707-.194a8.3 8.3 0 0 0 .792-2.596l-3.189-2.07a1 1 0 0 1-.42-1.097l1.072-4.006.021-.002a8.4 8.4 0 0 0-2.334-1.576z" clip-rule="evenodd" />
</svg>
